images/icons/signal.svg

<svg fill="none" height="24" viewBox="0 0 24 24" width="24" xmlns="http://www.w3.org/2000/svg" xmlns:xlink="http://www.w3.org/1999/xlink"><clipPath id="a"><path d="m0 0h24v24h-24z"/></clipPath><g clip-path="url(#a)"><path d="m9.11934.348529.26791 1.091671c-1.06188.26279-2.07815.68398-3.01461 1.24941l-.57588-.96648c1.03117-.62453 2.15159-1.088068 3.32258-1.374601zm5.75886 0-.268 1.091671c1.0619.26279 2.0782.68398 3.0147 1.24941l.5808-.96648c-1.0325-.62358-2.1536-1.08705-3.325-1.374601zm-13.15266 5.445831c-.62363 1.03162-1.087107 2.15189-1.374604 3.32258l1.091674.27041c.26279-1.06189.68398-2.07815 1.24941-3.01461zm-.60342 6.20444c.00084-.5448.04268-1.0889.12519-1.6274l-1.111703-.1753c-.1808093 1.1925-.1808093 2.4055 0 3.598l1.111703-.1678c-.08251-.5394-.12436-1.0843-.12519-1.63zm17.07608 10.2707-.5759-.9614c-.9344.5658-1.9491.987-3.0096 1.2494l.2705 1.0917c1.1689-.2892 2.2874-.7535 3.3175-1.3771zm4.6772-10.2707c-.0002.5448-.0412 1.0889-.1227 1.6275l1.1117.1703c.1808-1.1925.1808-2.4055 0-3.598l-1.1117.1703c.0826.5394.1245 1.0842.1252 1.6299zm.7762 2.8794-1.0917-.2704c-.2622 1.0629-.6834 2.0801-1.2494 3.0171l.9665.5784c.6233-1.0324 1.0859-2.1535 1.3721-3.3251zm-10.0254 7.8696c-1.0805.1637-2.1795.1637-3.2599 0l-.1678 1.1117c1.1917.1809 2.4038.1809 3.5955 0zm7.1259-4.3016c-.6474.8795-1.424 1.6561-2.3035 2.3035l.666.9039c.969-.7127 1.8264-1.5659 2.5439-2.5314zm-2.3035-15.20575c.8793.64767 1.6559 1.42425 2.3035 2.30352l.9064-.67353c-.7146-.96688-1.5695-1.82175-2.5364-2.53638zm-15.20825 2.30352c.64768-.87927 1.42425-1.65585 2.30353-2.30352l-.67353-.90639c-.96689.71463-1.82176 1.5695-2.53638 2.53638zm19.02915.24788-.964.57839c.566.93525.9873 1.95078 1.2494 3.0121l1.0917-.27041c-.2882-1.17007-.7526-2.28954-1.3771-3.32008zm-11.8982-4.54445c1.0805-.16373 2.1795-.16373 3.2599 0l.1678-1.111697c-1.1917-.1809375-2.4038-.1809375-3.5955 0zm-6.55006 20.7092-2.32355.5383.54333-2.3211-1.094173-.2553-.54333 2.321c-.067615.2905-.01729.5959.139943.8494.157232.2534.408542.4342.69884.5027.16821.0374.34257.0374.51078 0l2.32355-.5333zm-2.64404-3.0397 1.09918.2504.37557-1.6075c-.5484-.9192-.95683-1.9149-1.21185-2.9545l-1.091668.2729c.246769.9948.619514 1.954 1.109198 2.8544zm5.25053 2.4337-1.60746.3756.25539 1.0967 1.18181-.2754c.90008.4885 1.85946.8588 2.85436 1.1017l.26791-1.0892c-1.03454-.2582-2.02513-.6683-2.93949-1.2169zm5.57097-19.10417c-2.58602.00133-5.06568 1.02974-6.8936 2.85907s-2.85442 4.30978-2.85376 6.8958c.00303 1.8339.52189 3.63 1.49729 5.183l-.93643 4.0011 3.99861-.9364c2.18667 1.3159 4.80209 1.7222 7.28489 1.1317 2.4828-.5904 4.6353-2.1306 5.9955-4.29s1.8197-4.7659 1.28-7.2603c-.5398-2.49436-2.0358-4.67776-4.167-6.08167-1.5589-.98124-3.3634-1.50201-5.2055-1.5023" fill="#fff"/></g></svg>

<svg width="24" height="24" viewBox="0 0 24 24" fill="none" xmlns="http://www.w3.org/2000/svg">
<g clip-path="url(#clip0_1432_8751)">
<path d="M9.11934 0.348529L9.38725 1.4402C8.32537 1.70299 7.3091 2.12418 6.37264 2.68961L5.79676 1.72313C6.82793 1.0986 7.94835 0.635062 9.11934 0.348529V0.348529ZM14.8782 0.348529L14.6102 1.4402C15.6721 1.70299 16.6884 2.12418 17.6249 2.68961L18.2057 1.72313C17.1732 1.09955 16.0521 0.63608 14.8807 0.348529H14.8782ZM1.72554 5.79436C1.10191 6.82598 0.638433 7.94625 0.350936 9.11694L1.44261 9.38735C1.7054 8.32546 2.12659 7.3092 2.69202 6.37274L1.72554 5.79436ZM1.12212 11.9988C1.12296 11.454 1.1648 10.9099 1.24731 10.3714L0.135607 10.1961C-0.0452023 11.3886 -0.0452023 12.6016 0.135607 13.7941L1.24731 13.6263C1.1648 13.0869 1.12295 12.542 1.12212 11.9963V11.9988ZM18.1982 22.2695L17.6223 21.3081C16.6879 21.8739 15.6732 22.2951 14.6127 22.5575L14.8832 23.6492C16.0521 23.36 17.1706 22.8957 18.2007 22.2721L18.1982 22.2695ZM22.8754 11.9988C22.8752 12.5436 22.8342 13.0877 22.7527 13.6263L23.8644 13.7966C24.0452 12.6041 24.0452 11.3911 23.8644 10.1986L22.7527 10.3689C22.8353 10.9083 22.8772 11.4531 22.8779 11.9988H22.8754ZM23.6516 14.8782L22.5599 14.6078C22.2977 15.6707 21.8765 16.6879 21.3105 17.6249L22.277 18.2033C22.9003 17.1709 23.3629 16.0498 23.6491 14.8782H23.6516ZM13.6262 22.7478C12.5457 22.9115 11.4467 22.9115 10.3663 22.7478L10.1985 23.8595C11.3902 24.0404 12.6023 24.0404 13.794 23.8595L13.6262 22.7478ZM20.7521 18.4462C20.1047 19.3257 19.3281 20.1023 18.4486 20.7497L19.1146 21.6536C20.0836 20.9409 20.941 20.0877 21.6585 19.1222L20.7521 18.4462ZM18.4486 3.24045C19.3279 3.88812 20.1045 4.6647 20.7521 5.54397L21.6585 4.87044C20.9439 3.90356 20.089 3.04869 19.1221 2.33406L18.4486 3.24045ZM3.24035 5.54397C3.88803 4.6647 4.6646 3.88812 5.54388 3.24045L4.87035 2.33406C3.90346 3.04869 3.04859 3.90356 2.33397 4.87044L3.24035 5.54397ZM22.2695 5.79185L21.3055 6.37024C21.8715 7.30549 22.2928 8.32102 22.5549 9.38234L23.6466 9.11193C23.3584 7.94186 22.894 6.82239 22.2695 5.79185V5.79185ZM10.3713 1.2474C11.4518 1.08367 12.5508 1.08367 13.6312 1.2474L13.799 0.135703C12.6073 -0.0452345 11.3952 -0.0452345 10.2035 0.135703L10.3713 1.2474ZM3.82124 21.9566L1.49769 22.4949L2.04102 20.1738L0.946847 19.9185L0.403517 22.2395C0.335902 22.53 0.386227 22.8354 0.54346 23.0889C0.700692 23.3423 0.952002 23.5231 1.2423 23.5916C1.41051 23.629 1.58487 23.629 1.75308 23.5916L4.07663 23.0583L3.82124 21.9566ZM1.1772 18.9169L2.27638 19.1673L2.65195 17.5598C2.10355 16.6406 1.69512 15.6449 1.4401 14.6053L0.348432 14.8782C0.595201 15.873 0.967946 16.8322 1.45763 17.7326L1.1772 18.9169ZM6.42773 21.3506L4.82027 21.7262L5.07566 22.8229L6.25747 22.5475C7.15755 23.036 8.11693 23.4063 9.11183 23.6492L9.37974 22.56C8.3452 22.3018 7.35461 21.8917 6.44025 21.3431L6.42773 21.3506ZM11.9987 2.24643C9.41268 2.24776 6.93302 3.27617 5.1051 5.1055C3.27718 6.93483 2.25068 9.41528 2.25134 12.0013C2.25437 13.8352 2.77323 15.6313 3.74863 17.1843L2.8122 21.1854L6.81081 20.249C8.99748 21.5649 11.6129 21.9712 14.0957 21.3807C16.5785 20.7903 18.731 19.2501 20.0912 17.0907C21.4514 14.9313 21.9109 12.3248 21.3712 9.8304C20.8314 7.33604 19.3354 5.15264 17.2042 3.74873C15.6453 2.76749 13.8408 2.24672 11.9987 2.24643" fill="white"/>
</g>
<defs>
<clipPath id="clip0_1432_8751">
<rect width="24" height="24" fill="white"/>
</clipPath>
</defs>
</svg>
